_includes/icons/ios-cashbook.svg

<svg fill="#666" height="50" viewBox="0 0 50 50" width="50" xmlns="http://www.w3.org/2000/svg"><path d="m4.984375 5c-1.6367543 0-2.984375 1.3476207-2.984375 2.984375v34.03125c0 1.636754 1.3476207 2.984375 2.984375 2.984375h40.03125c1.636754 0 2.984375-1.347621 2.984375-2.984375v-34.03125c0-1.6367543-1.347621-2.984375-2.984375-2.984375zm0 2h40.03125c.555246 0 .984375.4291293.984375.984375v4.015625h-20.001953-2-19.998047v-4.015625c0-.5552457.4291293-.984375.984375-.984375zm-.984375 7h19.998047l.001953 29h-19.015625c-.5552457 0-.984375-.429129-.984375-.984375zm21.998047 0h20.001953v28.015625c0 .555246-.429129.984375-.984375.984375h-19.015625zm-18.998047 5v2h2v-2zm4 0v2h10v-2zm18 0v2h2v-2zm4 0v2h10v-2zm-26 4v2h2v-2zm4 0v2h8v-2zm18 0v2h2v-2zm4 0v2h10v-2zm-26 4v2h2v-2zm4 0v2h10v-2zm18 0v2h2v-2zm4 0v2h8v-2zm-16 5v2h4v-2zm22 0v2h4v-2zm-32 4v2h2v-2zm4 0v2h10v-2zm18 0v2h2v-2zm4 0v2h10v-2z"/></svg>

<svg xmlns="http://www.w3.org/2000/svg" viewBox="0 0 50 50" width="50" height="50" fill="#666"><path d="M 4.984375 5 C 3.3476207 5 2 6.3476207 2 7.984375 L 2 42.015625 C 2 43.652379 3.3476207 45 4.984375 45 L 45.015625 45 C 46.652379 45 48 43.652379 48 42.015625 L 48 7.984375 C 48 6.3476207 46.652379 5 45.015625 5 L 4.984375 5 z M 4.984375 7 L 45.015625 7 C 45.570871 7 46 7.4291293 46 7.984375 L 46 12 L 25.998047 12 L 23.998047 12 L 4 12 L 4 7.984375 C 4 7.4291293 4.4291293 7 4.984375 7 z M 4 14 L 23.998047 14 L 24 43 L 4.984375 43 C 4.4291293 43 4 42.570871 4 42.015625 L 4 14 z M 25.998047 14 L 46 14 L 46 42.015625 C 46 42.570871 45.570871 43 45.015625 43 L 26 43 L 25.998047 14 z M 7 19 L 7 21 L 9 21 L 9 19 L 7 19 z M 11 19 L 11 21 L 21 21 L 21 19 L 11 19 z M 29 19 L 29 21 L 31 21 L 31 19 L 29 19 z M 33 19 L 33 21 L 43 21 L 43 19 L 33 19 z M 7 23 L 7 25 L 9 25 L 9 23 L 7 23 z M 11 23 L 11 25 L 19 25 L 19 23 L 11 23 z M 29 23 L 29 25 L 31 25 L 31 23 L 29 23 z M 33 23 L 33 25 L 43 25 L 43 23 L 33 23 z M 7 27 L 7 29 L 9 29 L 9 27 L 7 27 z M 11 27 L 11 29 L 21 29 L 21 27 L 11 27 z M 29 27 L 29 29 L 31 29 L 31 27 L 29 27 z M 33 27 L 33 29 L 41 29 L 41 27 L 33 27 z M 17 32 L 17 34 L 21 34 L 21 32 L 17 32 z M 39 32 L 39 34 L 43 34 L 43 32 L 39 32 z M 7 36 L 7 38 L 9 38 L 9 36 L 7 36 z M 11 36 L 11 38 L 21 38 L 21 36 L 11 36 z M 29 36 L 29 38 L 31 38 L 31 36 L 29 36 z M 33 36 L 33 38 L 43 38 L 43 36 L 33 36 z"/></svg>
